images/5459684.svg

<?xml version="1.0" encoding="UTF-8"?>
<svg xmlns="http://www.w3.org/2000/svg" xmlns:xlink="http://www.w3.org/1999/xlink" width="300pt" height="300pt" viewBox="0 0 300 300" version="1.1">
<defs>
<g>
<symbol overflow="visible" id="glyph0-0">
<path style="stroke:none;" d="M 0.640625 2.296875 L 0.640625 -9.171875 L 7.140625 -9.171875 L 7.140625 2.296875 Z M 1.375 1.578125 L 6.421875 1.578125 L 6.421875 -8.4375 L 1.375 -8.4375 Z M 1.375 1.578125 "/>
</symbol>
<symbol overflow="visible" id="glyph0-1">
<path style="stroke:none;" d="M 5.125 -8.609375 C 4.1875 -8.609375 3.441406 -8.257812 2.890625 -7.5625 C 2.347656 -6.875 2.078125 -5.929688 2.078125 -4.734375 C 2.078125 -3.535156 2.347656 -2.585938 2.890625 -1.890625 C 3.441406 -1.203125 4.1875 -0.859375 5.125 -0.859375 C 6.050781 -0.859375 6.785156 -1.203125 7.328125 -1.890625 C 7.878906 -2.585938 8.15625 -3.535156 8.15625 -4.734375 C 8.15625 -5.929688 7.878906 -6.875 7.328125 -7.5625 C 6.785156 -8.257812 6.050781 -8.609375 5.125 -8.609375 Z M 5.125 -9.65625 C 6.445312 -9.65625 7.503906 -9.207031 8.296875 -8.3125 C 9.097656 -7.414062 9.5 -6.222656 9.5 -4.734375 C 9.5 -3.234375 9.097656 -2.035156 8.296875 -1.140625 C 7.503906 -0.253906 6.445312 0.1875 5.125 0.1875 C 3.789062 0.1875 2.722656 -0.253906 1.921875 -1.140625 C 1.128906 -2.035156 0.734375 -3.234375 0.734375 -4.734375 C 0.734375 -6.222656 1.128906 -7.414062 1.921875 -8.3125 C 2.722656 -9.207031 3.789062 -9.65625 5.125 -9.65625 Z M 5.125 -9.65625 "/>
</symbol>
<symbol overflow="visible" id="glyph0-2">
<path style="stroke:none;" d="M 1.28125 -9.484375 L 3 -9.484375 L 7.203125 -1.546875 L 7.203125 -9.484375 L 8.453125 -9.484375 L 8.453125 0 L 6.71875 0 L 2.515625 -7.921875 L 2.515625 0 L 1.28125 0 Z M 1.28125 -9.484375 "/>
</symbol>
</g>
</defs>
<g id="surface45557">
<rect x="0" y="0" width="300" height="300" style="fill:rgb(100%,100%,100%);fill-opacity:1;stroke:none;"/>
<path style="fill:none;stroke-width:1.2;stroke-linecap:butt;stroke-linejoin:miter;stroke:rgb(0%,0%,0%);stroke-opacity:1;stroke-miterlimit:10;" d="M 79.84375 215.347656 L 111.582031 203.644531 "/>
<path style="fill:none;stroke-width:1.2;stroke-linecap:butt;stroke-linejoin:miter;stroke:rgb(0%,0%,0%);stroke-opacity:1;stroke-miterlimit:10;" d="M 109.035156 206.703125 L 122.039062 217.519531 "/>
<path style="fill:none;stroke-width:1.2;stroke-linecap:butt;stroke-linejoin:miter;stroke:rgb(100%,0%,0%);stroke-opacity:1;stroke-miterlimit:10;" d="M 122.039062 217.519531 L 135.042969 228.339844 "/>
<path style="fill:none;stroke-width:1.2;stroke-linecap:butt;stroke-linejoin:miter;stroke:rgb(0%,0%,0%);stroke-opacity:1;stroke-miterlimit:10;" d="M 114.128906 200.585938 L 127.128906 211.402344 "/>
<path style="fill:none;stroke-width:1.2;stroke-linecap:butt;stroke-linejoin:miter;stroke:rgb(100%,0%,0%);stroke-opacity:1;stroke-miterlimit:10;" d="M 127.128906 211.402344 L 140.132812 222.21875 "/>
<path style="fill:none;stroke-width:1.2;stroke-linecap:butt;stroke-linejoin:miter;stroke:rgb(0%,0%,0%);stroke-opacity:1;stroke-miterlimit:10;" d="M 111.582031 203.644531 L 114.449219 186.976562 "/>
<path style="fill:none;stroke-width:1.2;stroke-linecap:butt;stroke-linejoin:miter;stroke:rgb(0%,0%,100%);stroke-opacity:1;stroke-miterlimit:10;" d="M 114.449219 186.976562 L 117.316406 170.304688 "/>
<path style=" stroke:none;fill-rule:nonzero;fill:rgb(100%,100%,100%);fill-opacity:1;" d="M 132.585938 217.277344 L 143.585938 217.277344 L 143.585938 233.277344 L 132.585938 233.277344 Z M 132.585938 217.277344 "/>
<g style="fill:rgb(100%,0%,0%);fill-opacity:1;">
  <use xlink:href="#glyph0-1" x="132.585938" y="229.65332"/>
</g>
<path style="fill:none;stroke-width:1.2;stroke-linecap:butt;stroke-linejoin:miter;stroke:rgb(0%,0%,100%);stroke-opacity:1;stroke-miterlimit:10;" d="M 117.316406 170.304688 L 132.488281 162.828125 "/>
<path style="fill:none;stroke-width:1.2;stroke-linecap:butt;stroke-linejoin:miter;stroke:rgb(0%,0%,0%);stroke-opacity:1;stroke-miterlimit:10;" d="M 132.488281 162.828125 L 147.65625 155.347656 "/>
<path style="fill:none;stroke-width:1.2;stroke-linecap:butt;stroke-linejoin:miter;stroke:rgb(0%,0%,0%);stroke-opacity:1;stroke-miterlimit:10;" d="M 93.714844 146.070312 L 105.515625 158.1875 "/>
<path style="fill:none;stroke-width:1.2;stroke-linecap:butt;stroke-linejoin:miter;stroke:rgb(0%,0%,100%);stroke-opacity:1;stroke-miterlimit:10;" d="M 105.515625 158.1875 L 117.316406 170.304688 "/>
<path style=" stroke:none;fill-rule:nonzero;fill:rgb(100%,100%,100%);fill-opacity:1;" d="M 112.316406 162.304688 L 122.316406 162.304688 L 122.316406 178.304688 L 112.316406 178.304688 Z M 112.316406 162.304688 "/>
<g style="fill:rgb(0%,0%,100%);fill-opacity:1;">
  <use xlink:href="#glyph0-2" x="112.316406" y="174.680664"/>
</g>
<path style="fill:none;stroke-width:1.2;stroke-linecap:butt;stroke-linejoin:miter;stroke:rgb(0%,0%,0%);stroke-opacity:1;stroke-miterlimit:10;" d="M 147.65625 155.347656 L 142.808594 121.871094 "/>
<path style=" stroke:none;fill-rule:nonzero;fill:rgb(0%,0%,0%);fill-opacity:1;" d="M 147.65625 155.347656 L 174.8125 176.386719 L 180.371094 165.824219 Z M 147.65625 155.347656 "/>
<path style="fill:none;stroke-width:1.2;stroke-linecap:butt;stroke-linejoin:miter;stroke:rgb(0%,0%,0%);stroke-opacity:1;stroke-miterlimit:10;" d="M 142.808594 121.871094 L 109.46875 116.136719 "/>
<path style="fill:none;stroke-width:1.2;stroke-linecap:butt;stroke-linejoin:miter;stroke:rgb(0%,0%,0%);stroke-opacity:1;stroke-miterlimit:10;" d="M 138.125 129.140625 L 111.457031 124.554688 "/>
<path style="fill:none;stroke-width:1.2;stroke-linecap:butt;stroke-linejoin:miter;stroke:rgb(0%,0%,0%);stroke-opacity:1;stroke-miterlimit:10;" d="M 109.46875 116.136719 L 93.714844 146.070312 "/>
<path style="fill:none;stroke-width:1;stroke-linecap:butt;stroke-linejoin:miter;stroke:rgb(0%,0%,0%);stroke-opacity:1;stroke-miterlimit:10;" d="M 93.714844 146.070312 L 93.714844 146.070312 M 91.425781 148.007812 L 92.226562 148.675781 M 89.132812 149.945312 L 90.738281 151.28125 M 86.84375 151.886719 L 89.25 153.886719 M 84.554688 153.824219 L 87.761719 156.488281 M 82.265625 155.761719 L 86.273438 159.09375 M 79.972656 157.699219 L 84.78125 161.699219 M 77.683594 159.636719 L 83.292969 164.304688 M 75.394531 161.574219 L 81.804688 166.910156 M 73.101562 163.511719 L 80.316406 169.511719 M 70.8125 165.449219 L 78.828125 172.117188 M 68.523438 167.386719 L 77.339844 174.722656 M 67.492188 168.257812 L 76.667969 175.894531 "/>
<path style="fill:none;stroke-width:1.2;stroke-linecap:butt;stroke-linejoin:miter;stroke:rgb(0%,0%,0%);stroke-opacity:1;stroke-miterlimit:10;" d="M 93.714844 146.070312 L 65.589844 127.273438 "/>
<path style="fill:none;stroke-width:1.2;stroke-linecap:butt;stroke-linejoin:miter;stroke:rgb(0%,0%,0%);stroke-opacity:1;stroke-miterlimit:10;" d="M 63.832031 123.703125 L 48.660156 131.183594 "/>
<path style="fill:none;stroke-width:1.2;stroke-linecap:butt;stroke-linejoin:miter;stroke:rgb(100%,0%,0%);stroke-opacity:1;stroke-miterlimit:10;" d="M 48.660156 131.183594 L 33.492188 138.660156 "/>
<path style="fill:none;stroke-width:1.2;stroke-linecap:butt;stroke-linejoin:miter;stroke:rgb(0%,0%,0%);stroke-opacity:1;stroke-miterlimit:10;" d="M 67.351562 130.84375 L 52.179688 138.320312 "/>
<path style="fill:none;stroke-width:1.2;stroke-linecap:butt;stroke-linejoin:miter;stroke:rgb(100%,0%,0%);stroke-opacity:1;stroke-miterlimit:10;" d="M 52.179688 138.320312 L 37.007812 145.800781 "/>
<path style="fill:none;stroke-width:1.2;stroke-linecap:butt;stroke-linejoin:miter;stroke:rgb(0%,0%,0%);stroke-opacity:1;stroke-miterlimit:10;" d="M 65.589844 127.273438 L 66.699219 110.394531 "/>
<path style="fill:none;stroke-width:1.2;stroke-linecap:butt;stroke-linejoin:miter;stroke:rgb(100%,0%,0%);stroke-opacity:1;stroke-miterlimit:10;" d="M 66.699219 110.394531 L 67.808594 93.519531 "/>
<path style=" stroke:none;fill-rule:nonzero;fill:rgb(100%,100%,100%);fill-opacity:1;" d="M 24.25 134.230469 L 35.25 134.230469 L 35.25 150.230469 L 24.25 150.230469 Z M 24.25 134.230469 "/>
<g style="fill:rgb(100%,0%,0%);fill-opacity:1;">
  <use xlink:href="#glyph0-1" x="24.25" y="146.606445"/>
</g>
<path style="fill:none;stroke-width:1.2;stroke-linecap:butt;stroke-linejoin:miter;stroke:rgb(100%,0%,0%);stroke-opacity:1;stroke-miterlimit:10;" d="M 67.808594 93.519531 L 53.746094 84.121094 "/>
<path style="fill:none;stroke-width:1.2;stroke-linecap:butt;stroke-linejoin:miter;stroke:rgb(0%,0%,0%);stroke-opacity:1;stroke-miterlimit:10;" d="M 53.746094 84.121094 L 39.6875 74.722656 "/>
<path style=" stroke:none;fill-rule:nonzero;fill:rgb(100%,100%,100%);fill-opacity:1;" d="M 62.808594 85.519531 L 73.808594 85.519531 L 73.808594 101.519531 L 62.808594 101.519531 Z M 62.808594 85.519531 "/>
<g style="fill:rgb(100%,0%,0%);fill-opacity:1;">
  <use xlink:href="#glyph0-1" x="62.808594" y="97.895508"/>
</g>
<path style="fill:none;stroke-width:1.2;stroke-linecap:butt;stroke-linejoin:miter;stroke:rgb(0%,0%,0%);stroke-opacity:1;stroke-miterlimit:10;" d="M 177.59375 171.105469 L 206.203125 153.058594 "/>
<path style="fill:none;stroke-width:1.2;stroke-linecap:butt;stroke-linejoin:miter;stroke:rgb(0%,0%,0%);stroke-opacity:1;stroke-miterlimit:10;" d="M 206.203125 153.058594 L 236.136719 168.8125 "/>
<path style="fill:none;stroke-width:1.2;stroke-linecap:butt;stroke-linejoin:miter;stroke:rgb(0%,0%,0%);stroke-opacity:1;stroke-miterlimit:10;" d="M 212.902344 147.589844 L 236.851562 160.195312 "/>
<path style="fill:none;stroke-width:1.2;stroke-linecap:butt;stroke-linejoin:miter;stroke:rgb(0%,0%,0%);stroke-opacity:1;stroke-miterlimit:10;" d="M 204.882812 119.257812 L 206.203125 153.058594 "/>
<path style="fill:none;stroke-width:1.2;stroke-linecap:butt;stroke-linejoin:miter;stroke:rgb(0%,0%,0%);stroke-opacity:1;stroke-miterlimit:10;" d="M 236.136719 168.8125 L 264.75 150.765625 "/>
<path style="fill:none;stroke-width:1.2;stroke-linecap:butt;stroke-linejoin:miter;stroke:rgb(0%,0%,0%);stroke-opacity:1;stroke-miterlimit:10;" d="M 264.75 150.765625 L 263.425781 116.964844 "/>
<path style="fill:none;stroke-width:1.2;stroke-linecap:butt;stroke-linejoin:miter;stroke:rgb(0%,0%,0%);stroke-opacity:1;stroke-miterlimit:10;" d="M 256.664062 147.699219 L 255.605469 120.65625 "/>
<path style="fill:none;stroke-width:1.2;stroke-linecap:butt;stroke-linejoin:miter;stroke:rgb(0%,0%,0%);stroke-opacity:1;stroke-miterlimit:10;" d="M 263.425781 116.964844 L 233.492188 101.210938 "/>
<path style="fill:none;stroke-width:1.2;stroke-linecap:butt;stroke-linejoin:miter;stroke:rgb(0%,0%,0%);stroke-opacity:1;stroke-miterlimit:10;" d="M 233.492188 101.210938 L 204.882812 119.257812 "/>
<path style="fill:none;stroke-width:1.2;stroke-linecap:butt;stroke-linejoin:miter;stroke:rgb(0%,0%,0%);stroke-opacity:1;stroke-miterlimit:10;" d="M 234.878906 109.746094 L 211.988281 124.183594 "/>
</g>
</svg>

<svg xmlns="http://www.w3.org/2000/svg" xmlns:xlink="http://www.w3.org/1999/xlink" width="300pt" height="300pt" viewBox="0 0 300 300"><defs><symbol overflow="visible"><path d="M.64 2.297v-11.47h6.5v11.47zm.735-.72h5.047V-8.436H1.375zm0 0"/></symbol><symbol overflow="visible" id="a"><path d="M5.125-8.61c-.938 0-1.684.352-2.234 1.047-.542.688-.812 1.633-.812 2.83 0 1.198.27 2.147.813 2.842.55.687 1.297 1.03 2.235 1.03.926 0 1.66-.343 2.203-1.03.55-.696.828-1.645.828-2.844 0-1.196-.277-2.14-.828-2.829-.543-.695-1.277-1.046-2.203-1.046zm0-1.046c1.32 0 2.38.45 3.172 1.344.8.898 1.203 2.09 1.203 3.578 0 1.5-.402 2.7-1.203 3.593C7.504-.255 6.445.186 5.125.186c-1.336 0-2.402-.44-3.203-1.328C1.13-2.036.734-3.235.734-4.735c0-1.49.395-2.68 1.188-3.579.8-.894 1.867-1.343 3.203-1.343zm0 0"/></symbol><symbol overflow="visible" id="b"><path d="M1.28-9.484H3l4.203 7.937v-7.937h1.25V0H6.72L2.515-7.922V0H1.28zm0 0"/></symbol></defs><g><path fill="#fff" d="M0 0h300v300H0z"/><path d="M79.844 215.348l31.738-11.703M109.035 206.703l13.004 10.817" stroke-width="1.2" stroke="#000" stroke-miterlimit="10" fill="none"/><path d="M122.04 217.52l13.003 10.82" stroke-width="1.2" stroke="#f00" stroke-miterlimit="10" fill="none"/><path d="M114.13 200.586l13 10.816" stroke-width="1.2" stroke="#000" stroke-miterlimit="10" fill="none"/><path d="M127.13 211.402l13.003 10.817" stroke-width="1.2" stroke="#f00" stroke-miterlimit="10" fill="none"/><path d="M111.582 203.645l2.867-16.668" stroke-width="1.2" stroke="#000" stroke-miterlimit="10" fill="none"/><path d="M114.45 186.977l2.866-16.672" stroke-width="1.2" stroke="#00f" stroke-miterlimit="10" fill="none"/><path d="M132.586 217.277h11v16h-11zm0 0" fill="#fff"/><use xlink:href="#a" x="132.586" y="229.653" fill="#f00"/><path d="M117.316 170.305l15.172-7.477" stroke-width="1.2" stroke="#00f" stroke-miterlimit="10" fill="none"/><path d="M132.488 162.828l15.168-7.48M93.715 146.07l11.8 12.118" stroke-width="1.2" stroke="#000" stroke-miterlimit="10" fill="none"/><path d="M105.516 158.188l11.8 12.117" stroke-width="1.2" stroke="#00f" stroke-miterlimit="10" fill="none"/><path d="M112.316 162.305h10v16h-10zm0 0" fill="#fff"/><use xlink:href="#b" x="112.316" y="174.681" fill="#00f"/><path d="M147.656 155.348l-4.847-33.477" stroke-width="1.2" stroke="#000" stroke-miterlimit="10" fill="none"/><path d="M147.656 155.348l27.156 21.04 5.56-10.564zm0 0"/><path d="M142.81 121.87l-33.34-5.733M138.125 129.14l-26.668-4.585M109.47 116.137L93.714 146.07" stroke-width="1.2" stroke="#000" stroke-miterlimit="10" fill="none"/><path d="M93.715 146.07m-2.29 1.938l.802.668m-3.094 1.27l1.605 1.335m-3.894.607l2.406 2m-4.695-.063l3.207 2.664m-5.496-.726l4.007 3.332m-6.3-1.395l4.808 4m-7.096-2.063l5.61 4.668m-7.9-2.73l6.41 5.335m-8.702-3.398l7.214 6m-9.504-4.063l8.016 6.667m-10.305-4.73l8.817 7.336m-9.848-6.465l9.176 7.637" stroke="#000" stroke-miterlimit="10" fill="none"/><path d="M93.715 146.07L65.59 127.273M63.832 123.703l-15.172 7.48" stroke-width="1.2" stroke="#000" stroke-miterlimit="10" fill="none"/><path d="M48.66 131.184l-15.168 7.476" stroke-width="1.2" stroke="#f00" stroke-miterlimit="10" fill="none"/><path d="M67.352 130.844L52.18 138.32" stroke-width="1.2" stroke="#000" stroke-miterlimit="10" fill="none"/><path d="M52.18 138.32l-15.172 7.48" stroke-width="1.2" stroke="#f00" stroke-miterlimit="10" fill="none"/><path d="M65.59 127.273l1.11-16.878" stroke-width="1.2" stroke="#000" stroke-miterlimit="10" fill="none"/><path d="M66.7 110.395l1.11-16.875" stroke-width="1.2" stroke="#f00" stroke-miterlimit="10" fill="none"/><path d="M24.25 134.23h11v16h-11zm0 0" fill="#fff"/><use xlink:href="#a" x="24.25" y="146.606" fill="#f00"/><path d="M67.81 93.52l-14.064-9.4" stroke-width="1.2" stroke="#f00" stroke-miterlimit="10" fill="none"/><path d="M53.746 84.12l-14.06-9.397" stroke-width="1.2" stroke="#000" stroke-miterlimit="10" fill="none"/><path d="M62.81 85.52h11v16h-11zm0 0" fill="#fff"/><use xlink:href="#a" x="62.809" y="97.896" fill="#f00"/><path d="M177.594 171.105l28.61-18.046M206.203 153.06l29.934 15.752M212.902 147.59l23.95 12.605M204.883 119.258l1.32 33.8M236.137 168.813l28.613-18.047M264.75 150.766l-1.324-33.8M256.664 147.7l-1.06-27.044M263.426 116.965l-29.934-15.754M233.492 101.21l-28.61 18.048M234.88 109.746l-22.892 14.438" stroke-width="1.2" stroke="#000" stroke-miterlimit="10" fill="none"/></g></svg>
